X: 142
T: The Little Drummer Boy
M:4/4
R:reel
L:1/8
Z:Alf 
K:F
F6G2|A4 A2A2|BAB2 A4-|A8|
z2F2 F2G2|A2A2 A2A2|BAB2 A4-|A8|
z2G2 A2B2|c2c2 c2d2|cBA2 G4-|G8|
z2G2 A2B2|c2c2 c2d2|_edc2 B4| dcB2 A4|
cBA2 G4-|G8| F6G2|A2A2 A2A2|
BAB2 A4-|A8| GFG2 F4-|F8|]
